X: 181
M: 6/8
L: 1/8
K: G
g |\
"2.f. de Suitte"[| [K:Gm] !segno!A B2A |\
[| A B2c |\
d3 c2e | d3 c2e | d2c B2A | B2G B2c |\
d3 c2e | d3 c2e | d2c B2c | d2 !segno!y |]

